public/images/icon-sub-heading.svg

<svg width="18" height="18" viewBox="0 0 18 18" fill="none" xmlns="http://www.w3.org/2000/svg">
<path d="M15.8531 8.63933L13.8086 8.05508C12.8879 7.79551 12.0492 7.30401 11.3728 6.6276C10.6964 5.9512 10.2049 5.11252 9.94536 4.19183L9.36111 2.14733C9.33172 2.0758 9.28174 2.01462 9.2175 1.97156C9.15327 1.92851 9.07769 1.90552 9.00036 1.90552C8.92303 1.90552 8.84744 1.92851 8.78321 1.97156C8.71897 2.01462 8.66899 2.0758 8.63961 2.14733L8.05536 4.19183C7.79579 5.11252 7.30429 5.9512 6.62788 6.6276C5.95147 7.30401 5.1128 7.79551 4.19211 8.05508L2.14761 8.63933C2.0691 8.66161 2.00001 8.70889 1.95082 8.774C1.90162 8.8391 1.875 8.91848 1.875 9.00008C1.875 9.08168 1.90162 9.16106 1.95082 9.22616C2.00001 9.29127 2.0691 9.33855 2.14761 9.36083L4.19211 9.94508C5.1128 10.2046 5.95147 10.6962 6.62788 11.3726C7.30429 12.049 7.79579 12.8876 8.05536 13.8083L8.63961 15.8528C8.66189 15.9313 8.70917 16.0004 8.77427 16.0496C8.83938 16.0988 8.91875 16.1254 9.00036 16.1254C9.08196 16.1254 9.16133 16.0988 9.22644 16.0496C9.29154 16.0004 9.33882 15.9313 9.36111 15.8528L9.94536 13.8083C10.2049 12.8876 10.6964 12.049 11.3728 11.3726C12.0492 10.6962 12.8879 10.2046 13.8086 9.94508L15.8531 9.36083C15.9316 9.33855 16.0007 9.29127 16.0499 9.22616C16.0991 9.16106 16.1257 9.08168 16.1257 9.00008C16.1257 8.91848 16.0991 8.8391 16.0499 8.774C16.0007 8.70889 15.9316 8.66161 15.8531 8.63933Z" fill="#DCF763"/>
</svg>

<?xml version="1.0" encoding="UTF-8"?>
<svg id="Layer_1" data-name="Layer 1" xmlns="http://www.w3.org/2000/svg" viewBox="0 0 18 18">
  <defs>
    <style>
      .cls-1 {
        fill: #be8fdc;
      }
    </style>
  </defs>
  <path class="cls-1" d="M15.85,8.64l-2.04-.58c-.92-.26-1.76-.75-2.44-1.43-.68-.68-1.17-1.52-1.43-2.44l-.58-2.04c-.03-.07-.08-.13-.14-.18-.06-.04-.14-.07-.22-.07s-.15.02-.22.07c-.06.04-.11.1-.14.18l-.58,2.04c-.26.92-.75,1.76-1.43,2.44-.68.68-1.52,1.17-2.44,1.43l-2.04.58c-.08.02-.15.07-.2.13-.05.07-.08.14-.08.23s.03.16.08.23c.05.07.12.11.2.13l2.04.58c.92.26,1.76.75,2.44,1.43.68.68,1.17,1.52,1.43,2.44l.58,2.04c.02.08.07.15.13.2.07.05.14.08.23.08s.16-.03.23-.08c.07-.05.11-.12.13-.2l.58-2.04c.26-.92.75-1.76,1.43-2.44.68-.68,1.52-1.17,2.44-1.43l2.04-.58c.08-.02.15-.07.2-.13.05-.07.08-.14.08-.23s-.03-.16-.08-.23c-.05-.07-.12-.11-.2-.13Z"/>
</svg>
